public/NotFoundArtFG.svg

<svg width="779" height="269" viewBox="0 0 779 269" fill="none" xmlns="http://www.w3.org/2000/svg">
<foreignObject x="497.562" y="-18.165" width="204.368" height="204.368"><div xmlns="http://www.w3.org/1999/xhtml" style="backdrop-filter:blur(9.16px);clip-path:url(#bgblur_0_320_283_clip_path);height:100%;width:100%"></div></foreignObject><path data-figma-bg-blur-radius="18.3125" d="M683.617 11.135C683.617 5.06675 678.697 0.147491 672.629 0.147491L526.862 0.147491C520.793 0.147491 515.874 5.06676 515.874 11.135V156.902C515.874 162.971 520.793 167.89 526.862 167.89L672.629 167.89C678.697 167.89 683.617 162.971 683.617 156.902V11.135Z" fill="#FFC370" fill-opacity="0.5"/>
<foreignObject x="173.797" y="-10.84" width="95.9574" height="95.9575"><div xmlns="http://www.w3.org/1999/xhtml" style="backdrop-filter:blur(5.49px);clip-path:url(#bgblur_1_320_283_clip_path);height:100%;width:100%"></div></foreignObject><path data-figma-bg-blur-radius="10.9875" d="M258.767 11.135C258.767 5.06677 253.848 0.147491 247.78 0.147491L195.772 0.147491C189.704 0.147491 184.785 5.06676 184.785 11.135V63.1425C184.785 69.2107 189.704 74.13 195.772 74.13H247.78C253.848 74.13 258.767 69.2107 258.767 63.1425V11.135Z" fill="#FFC370" fill-opacity="0.5"/>
<foreignObject x="121.057" y="205.247" width="74.7152" height="74.715"><div xmlns="http://www.w3.org/1999/xhtml" style="backdrop-filter:blur(5.49px);clip-path:url(#bgblur_2_320_283_clip_path);height:100%;width:100%"></div></foreignObject><path data-figma-bg-blur-radius="10.9875" d="M184.785 227.222C184.785 221.154 179.865 216.235 173.797 216.235H143.032C136.964 216.235 132.045 221.154 132.045 227.222V257.987C132.045 264.056 136.964 268.975 143.032 268.975H173.797C179.865 268.975 184.785 264.056 184.785 257.987V227.222Z" fill="#B444FF" fill-opacity="0.5"/>
<foreignObject x="367.91" y="111.487" width="158.22" height="158.22"><div xmlns="http://www.w3.org/1999/xhtml" style="backdrop-filter:blur(18.31px);clip-path:url(#bgblur_3_320_283_clip_path);height:100%;width:100%"></div></foreignObject><path data-figma-bg-blur-radius="36.625" d="M489.505 156.902C489.505 152.048 485.569 148.112 480.715 148.112H413.325C408.47 148.112 404.535 152.048 404.535 156.902V224.292C404.535 229.147 408.47 233.082 413.325 233.082H480.715C485.569 233.082 489.505 229.147 489.505 224.292V156.902Z" fill="#B444FF" fill-opacity="0.5"/>
<foreignObject x="-17.3853" y="44.83" width="158.22" height="158.22"><div xmlns="http://www.w3.org/1999/xhtml" style="backdrop-filter:blur(9.16px);clip-path:url(#bgblur_4_320_283_clip_path);height:100%;width:100%"></div></foreignObject><path data-figma-bg-blur-radius="18.3125" d="M122.522 71.9325C122.522 67.0779 118.587 63.1425 113.732 63.1425L9.71746 63.1425C4.86288 63.1425 0.92746 67.0779 0.92746 71.9325L0.92746 175.948C0.92746 180.802 4.86288 184.738 9.71746 184.738H113.732C118.587 184.738 122.522 180.802 122.522 175.948L122.522 71.9325Z" fill="#B444FF" fill-opacity="0.5"/>
<foreignObject x="695.337" y="173.75" width="94.4926" height="94.4925"><div xmlns="http://www.w3.org/1999/xhtml" style="backdrop-filter:blur(5.49px);clip-path:url(#bgblur_5_320_283_clip_path);height:100%;width:100%"></div></foreignObject><path data-figma-bg-blur-radius="10.9875" d="M778.842 193.527C778.842 188.673 774.906 184.737 770.052 184.737H715.114C710.26 184.737 706.324 188.673 706.324 193.527V248.465C706.324 253.32 710.26 257.255 715.114 257.255H770.052C774.906 257.255 778.842 253.32 778.842 248.465V193.527Z" fill="#FFC561" fill-opacity="0.3"/>
<defs>
<clipPath id="bgblur_0_320_283_clip_path" transform="translate(-497.562 18.165)"><path d="M683.617 11.135C683.617 5.06675 678.697 0.147491 672.629 0.147491L526.862 0.147491C520.793 0.147491 515.874 5.06676 515.874 11.135V156.902C515.874 162.971 520.793 167.89 526.862 167.89L672.629 167.89C678.697 167.89 683.617 162.971 683.617 156.902V11.135Z"/>
</clipPath><clipPath id="bgblur_1_320_283_clip_path" transform="translate(-173.797 10.84)"><path d="M258.767 11.135C258.767 5.06677 253.848 0.147491 247.78 0.147491L195.772 0.147491C189.704 0.147491 184.785 5.06676 184.785 11.135V63.1425C184.785 69.2107 189.704 74.13 195.772 74.13H247.78C253.848 74.13 258.767 69.2107 258.767 63.1425V11.135Z"/>
</clipPath><clipPath id="bgblur_2_320_283_clip_path" transform="translate(-121.057 -205.247)"><path d="M184.785 227.222C184.785 221.154 179.865 216.235 173.797 216.235H143.032C136.964 216.235 132.045 221.154 132.045 227.222V257.987C132.045 264.056 136.964 268.975 143.032 268.975H173.797C179.865 268.975 184.785 264.056 184.785 257.987V227.222Z"/>
</clipPath><clipPath id="bgblur_3_320_283_clip_path" transform="translate(-367.91 -111.487)"><path d="M489.505 156.902C489.505 152.048 485.569 148.112 480.715 148.112H413.325C408.47 148.112 404.535 152.048 404.535 156.902V224.292C404.535 229.147 408.47 233.082 413.325 233.082H480.715C485.569 233.082 489.505 229.147 489.505 224.292V156.902Z"/>
</clipPath><clipPath id="bgblur_4_320_283_clip_path" transform="translate(17.3853 -44.83)"><path d="M122.522 71.9325C122.522 67.0779 118.587 63.1425 113.732 63.1425L9.71746 63.1425C4.86288 63.1425 0.92746 67.0779 0.92746 71.9325L0.92746 175.948C0.92746 180.802 4.86288 184.738 9.71746 184.738H113.732C118.587 184.738 122.522 180.802 122.522 175.948L122.522 71.9325Z"/>
</clipPath><clipPath id="bgblur_5_320_283_clip_path" transform="translate(-695.337 -173.75)"><path d="M778.842 193.527C778.842 188.673 774.906 184.737 770.052 184.737H715.114C710.26 184.737 706.324 188.673 706.324 193.527V248.465C706.324 253.32 710.26 257.255 715.114 257.255H770.052C774.906 257.255 778.842 253.32 778.842 248.465V193.527Z"/>
</clipPath></defs>
</svg>

<svg xmlns="http://www.w3.org/2000/svg" fill="none" viewBox="0 0 779 269"><foreignObject width="204.37" height="204.37" x="497.56" y="-18.16"><div xmlns="http://www.w3.org/1999/xhtml" style="backdrop-filter:blur(9.16px);clip-path:url(#a);height:100%;width:100%"/></foreignObject><path fill="#FFC370" fill-opacity=".5" d="M683.62 11.13c0-6.06-4.92-10.98-11-10.98H526.87a10.99 10.99 0 0 0-10.99 10.98V156.9c0 6.07 4.92 10.99 11 10.99h145.76c6.07 0 10.99-4.92 10.99-10.99V11.13Z" data-figma-bg-blur-radius="18.31"/><foreignObject width="95.96" height="95.96" x="173.8" y="-10.84"><div xmlns="http://www.w3.org/1999/xhtml" style="backdrop-filter:blur(5.49px);clip-path:url(#b);height:100%;width:100%"/></foreignObject><path fill="#FFC370" fill-opacity=".5" d="M258.77 11.13c0-6.06-4.92-10.98-10.99-10.98h-52a10.99 10.99 0 0 0-11 10.98v52.01c0 6.07 4.92 10.99 11 10.99h52c6.07 0 10.99-4.92 10.99-10.99v-52Z" data-figma-bg-blur-radius="10.99"/><foreignObject width="74.72" height="74.72" x="121.06" y="205.25"><div xmlns="http://www.w3.org/1999/xhtml" style="backdrop-filter:blur(5.49px);clip-path:url(#c);height:100%;width:100%"/></foreignObject><path fill="#B444FF" fill-opacity=".5" d="M184.78 227.22c0-6.07-4.91-10.98-10.98-10.98h-30.77a10.99 10.99 0 0 0-10.99 10.98V258c0 6.07 4.92 10.99 11 10.99h30.76c6.06 0 10.98-4.92 10.98-11v-30.76Z" data-figma-bg-blur-radius="10.99"/><foreignObject width="158.22" height="158.22" x="367.91" y="111.49"><div xmlns="http://www.w3.org/1999/xhtml" style="backdrop-filter:blur(18.31px);clip-path:url(#d);height:100%;width:100%"/></foreignObject><path fill="#B444FF" fill-opacity=".5" d="M489.5 156.9a8.8 8.8 0 0 0-8.79-8.79h-67.38a8.79 8.79 0 0 0-8.8 8.8v67.38a8.79 8.79 0 0 0 8.8 8.8h67.38a8.79 8.79 0 0 0 8.8-8.8V156.9Z" data-figma-bg-blur-radius="36.63"/><foreignObject width="158.22" height="158.22" x="-17.39" y="44.83"><div xmlns="http://www.w3.org/1999/xhtml" style="backdrop-filter:blur(9.16px);clip-path:url(#e);height:100%;width:100%"/></foreignObject><path fill="#B444FF" fill-opacity=".5" d="M122.52 71.93a8.79 8.79 0 0 0-8.79-8.79H9.72a8.79 8.79 0 0 0-8.8 8.8v104a8.79 8.79 0 0 0 8.8 8.8h104.01a8.79 8.79 0 0 0 8.8-8.8v-104Z" data-figma-bg-blur-radius="18.31"/><foreignObject width="94.49" height="94.49" x="695.34" y="173.75"><div xmlns="http://www.w3.org/1999/xhtml" style="backdrop-filter:blur(5.49px);clip-path:url(#f);height:100%;width:100%"/></foreignObject><path fill="#FFC561" fill-opacity=".3" d="M778.84 193.53a8.8 8.8 0 0 0-8.79-8.8h-54.94a8.8 8.8 0 0 0-8.79 8.8v54.94a8.79 8.79 0 0 0 8.8 8.78h54.93a8.79 8.79 0 0 0 8.8-8.78v-54.94Z" data-figma-bg-blur-radius="10.99"/><defs><clipPath id="a" transform="translate(-497.56 18.16)"><path d="M683.62 11.13c0-6.06-4.92-10.98-11-10.98H526.87a10.99 10.99 0 0 0-10.99 10.98V156.9c0 6.07 4.92 10.99 11 10.99h145.76c6.07 0 10.99-4.92 10.99-10.99V11.13Z"/></clipPath><clipPath id="b" transform="translate(-173.8 10.84)"><path d="M258.77 11.13c0-6.06-4.92-10.98-10.99-10.98h-52a10.99 10.99 0 0 0-11 10.98v52.01c0 6.07 4.92 10.99 11 10.99h52c6.07 0 10.99-4.92 10.99-10.99v-52Z"/></clipPath><clipPath id="c" transform="translate(-121.06 -205.25)"><path d="M184.78 227.22c0-6.07-4.91-10.98-10.98-10.98h-30.77a10.99 10.99 0 0 0-10.99 10.98V258c0 6.07 4.92 10.99 11 10.99h30.76c6.06 0 10.98-4.92 10.98-11v-30.76Z"/></clipPath><clipPath id="d" transform="translate(-367.91 -111.49)"><path d="M489.5 156.9a8.8 8.8 0 0 0-8.79-8.79h-67.38a8.79 8.79 0 0 0-8.8 8.8v67.38a8.79 8.79 0 0 0 8.8 8.8h67.38a8.79 8.79 0 0 0 8.8-8.8V156.9Z"/></clipPath><clipPath id="e" transform="translate(17.39 -44.83)"><path d="M122.52 71.93a8.79 8.79 0 0 0-8.79-8.79H9.72a8.79 8.79 0 0 0-8.8 8.8v104a8.79 8.79 0 0 0 8.8 8.8h104.01a8.79 8.79 0 0 0 8.8-8.8v-104Z"/></clipPath><clipPath id="f" transform="translate(-695.34 -173.75)"><path d="M778.84 193.53a8.8 8.8 0 0 0-8.79-8.8h-54.94a8.8 8.8 0 0 0-8.79 8.8v54.94a8.79 8.79 0 0 0 8.8 8.78h54.93a8.79 8.79 0 0 0 8.8-8.78v-54.94Z"/></clipPath></defs></svg>
